X:5
T:Mendiant du jour - D150-1
C:J. Gelineau
M:2/4
L:1/8
K:Gm
(3:2:2"Solm"z2G (3:2:2"Fa"F2E|"Sib"D2 "Mib"zC/D/|"Dom"E/EE/ "Fa"C D/E/|"Rem"F/FF/ "Solm"D2|\
(3zGG "Fa"FF/E/|
"Sib"D3/ B,/ "Mib"E/E/E/D/|"Fa"C3/ C/ F/F/F/E/|"Sib"D2 (3BBA|"Dom"B2- "Sib"BB/c/|
"Mib"B/BA/ (3"Dom"BBA|"Fa"GF- F F/G/|(3FFF "Sib"D"Mib"B,/C/|"Re"D2 "Solm"D2:|
